images/Combined Shape.svg

<svg width="25" height="25" viewBox="0 0 25 25" fill="none" xmlns="http://www.w3.org/2000/svg">
<path fill-rule="evenodd" clip-rule="evenodd" d="M14.3891 3.44653C10.8747 -0.065026 5.66533 -0.570534 2.77639 2.32151C-0.114045 5.21205 0.391444 10.4216 3.89987 13.9347C4.83584 14.8707 5.91432 15.5862 7.05279 16.0992C7.42629 13.9287 8.49726 11.8422 10.1232 10.1291C9.58474 9.93713 9.03275 9.77512 8.45676 9.61762C5.04584 8.68161 3.35088 5.83606 2.95489 2.50001C3.28241 2.89387 3.5806 3.30698 3.87792 3.71888C4.45478 4.51805 5.02833 5.31263 5.80632 5.95307C7.01657 6.9496 8.345 7.33429 9.79833 7.75515C9.85444 7.7714 9.91074 7.7877 9.96723 7.80409C10.6557 8.0036 11.2542 8.2991 11.8032 8.64411C13.2462 7.58959 14.8736 6.88758 16.5536 6.59808C16.0421 5.45956 15.3251 4.38254 14.3891 3.44653ZM8.44626 16.9332C8.66976 14.7597 9.72274 12.6342 11.4102 10.9466C14.9246 7.43509 20.134 6.92808 23.0229 9.82162C25.9134 12.7122 25.4094 17.9217 21.8965 21.4348C20.209 23.1223 18.0835 24.1753 15.9101 24.4003C15.6206 24.4288 15.3341 24.4438 15.0536 24.4438C13.1847 24.4438 11.5152 23.7883 10.2852 22.5583C8.86925 21.1438 8.21527 19.1458 8.44626 16.9332ZM13.5866 18.7168C14.7386 17.8377 15.9851 17.4897 17.3411 17.1192C20.752 16.1832 22.4454 13.3377 22.8429 10.0016C22.5182 10.3933 22.2222 10.8036 21.927 11.2127C21.3484 12.0147 20.7732 12.812 19.9915 13.4547C18.7775 14.4528 17.446 14.8382 15.9862 15.2606L15.8306 15.3057C12.4932 16.2747 10.8432 19.0963 10.4622 22.3798C10.791 21.9848 11.0922 21.5747 11.3918 21.1668C12.0421 20.2812 12.685 19.4058 13.5866 18.7168Z" fill="#0E8784"/>
</svg>

<svg width="25" height="25" fill="none" xmlns="http://www.w3.org/2000/svg"><path fill-rule="evenodd" clip-rule="evenodd" d="M14.39 3.447C10.874-.065 5.664-.571 2.775 2.322c-2.89 2.89-2.385 8.1 1.124 11.613a10.607 10.607 0 0 0 3.153 2.164c.373-2.17 1.444-4.257 3.07-5.97a23.044 23.044 0 0 0-1.666-.511C5.046 8.682 3.35 5.836 2.955 2.5c.327.394.626.807.923 1.219.577.799 1.15 1.594 1.928 2.234 1.21.997 2.539 1.381 3.992 1.802l.17.05a7.17 7.17 0 0 1 1.835.84c1.443-1.055 3.07-1.757 4.75-2.047a10.573 10.573 0 0 0-2.164-3.151zM8.445 16.933c.224-2.173 1.277-4.299 2.964-5.986 3.515-3.512 8.724-4.019 11.613-1.125 2.89 2.89 2.386 8.1-1.127 11.613-1.687 1.687-3.813 2.74-5.986 2.965-.29.029-.576.044-.856.044-1.87 0-3.539-.656-4.769-1.886-1.416-1.414-2.07-3.412-1.839-5.625zm5.14 1.784c1.153-.88 2.4-1.227 3.755-1.598 3.411-.936 5.104-3.781 5.502-7.117-.325.391-.62.802-.916 1.21-.579.803-1.154 1.6-1.936 2.243-1.213.998-2.545 1.383-4.005 1.806l-.155.045c-3.338.969-4.988 3.79-5.369 7.074.329-.395.63-.805.93-1.213.65-.886 1.293-1.761 2.195-2.45z" fill="#0E8784"/></svg>
